X:7887
T:Jenny Dang the Weaver. TLY.009
M:4/4
L:1/8
Q:200
S:Wm.Tildesley,Swinton,Lancs.1860s.
R:Reel
O:England.
A:Lancashire.
H:1860.
Z:Taz Tarry.
K:D
g|fA A/2/A/A ABAB|dA A/2A/2A f2 ed|gB Bc/2B/2 BABd|ABde f2e:|!
|:f|defd efge|defd e2 ~dB|defd eBgB|aA A/2A/2A f2e:|]
